artwork/resources/intui/icons/shell/filetree/feature-module.svg

<svg width="16" height="16" viewBox="0 0 16 16" fill="none" xmlns="http://www.w3.org/2000/svg">
<g clip-path="url(#clip0_3_844)">
<rect x="9.5" y="8.5" width="6" height="6" rx="1.5" fill="#E7EFFD" stroke="#3574F0"/>
<path fill-rule="evenodd" clip-rule="evenodd" d="M1 2.86667C1 1.83574 1.7835 1 2.75 1H6.03823C6.29871 1 6.5489 1.10163 6.73559 1.28327L8.5 3L13 3C14.1046 3 15 3.89543 15 5V7.17071C14.6872 7.06015 14.3506 7 14 7H11C9.34315 7 8 8.34315 8 10V13H2.75C1.7835 13 1 12.1643 1 11.1333V2.86667Z" fill="#EBECF0"/>
<path fill-rule="evenodd" clip-rule="evenodd" d="M7.80265 3.71673L8.09379 4H8.5H13C13.5523 4 14 4.44772 14 5V7C14.3506 7 14.6872 7.06015 15 7.17071V5C15 3.89543 14.1046 3 13 3L8.5 3L6.73559 1.28327C6.5489 1.10163 6.29871 1 6.03823 1H2.75C1.7835 1 1 1.83574 1 2.86667V11.1333C1 12.1643 1.7835 13 2.75 13H8V12H2.75C2.3956 12 2 11.6738 2 11.1333V2.86667C2 2.32624 2.3956 2 2.75 2H6.03823L7.80265 3.71673Z" fill="#6C707E"/>
</g>
<defs>
<clipPath id="clip0_3_844">
<rect width="16" height="16" fill="white"/>
</clipPath>
</defs>
</svg>

<svg width="16" height="16" viewBox="0 0 16 16" fill="none" xmlns="http://www.w3.org/2000/svg"><g clip-path="url(#clip0_3_844)"><rect x="9.5" y="8.5" width="6" height="6" rx="1.5" fill="#E7EFFD" stroke="#3574F0"/><path fill-rule="evenodd" clip-rule="evenodd" d="M1 2.867C1 1.836 1.784 1 2.75 1h3.288a1 1 0 0 1 .698.283L8.5 3H13a2 2 0 0 1 2 2v2.17c-.313-.11-.65-.17-1-.17h-3a3 3 0 0 0-3 3v3H2.75C1.784 13 1 12.164 1 11.133V2.867z" fill="#EBECF0"/><path fill-rule="evenodd" clip-rule="evenodd" d="M7.803 3.717l.29.283H13a1 1 0 0 1 1 1v2c.35 0 .687.06 1 .17V5a2 2 0 0 0-2-2H8.5L6.736 1.283A1 1 0 0 0 6.038 1H2.75C1.784 1 1 1.836 1 2.867v8.266C1 12.164 1.784 13 2.75 13H8v-1H2.75c-.354 0-.75-.326-.75-.867V2.867c0-.54.396-.867.75-.867h3.288l1.765 1.717z" fill="#6C707E"/></g><defs><clipPath id="clip0_3_844"><path fill="#fff" d="M0 0h16v16H0z"/></clipPath></defs></svg>
